X:1
T:Griffith, 77.77
T:Griffith, 77.77
T:Württemberg Melody
T:Public Domain Courtesy of the Cyber Hymnal™
C:Württemberg Melody
Z:Public Domain
Z:Courtesy of the Cyber Hymnal™
%%score ( 1 2 ) ( 3 4 )
L:1/8
Q:1/4=107
M:4/4
K:G
V:1 treble 
V:2 treble 
V:3 bass 
V:4 bass 
V:1
 [DG]2 [DA]2 [GB]2 [Gc]2 | [Gd]2 (cB) [FA]4 | [DB]2 [FA]2 [EG]2 [DF]2 | [DE]2 (AG) [DF]4 | %4
 [B,G]2 (GF) (EF) [DG]2 | c2 [GB]2 [FA]4 | [Gd]2 [EG]2 c2 [GB]2 | [GA]2 [FA]2 [DG]4 |] %8
V:2
 x8 | x2 G2 x4 | x8 | x2 ^C2 x4 | x2 D2 C2 x2 | (EF) x6 | x4 (EF) x2 | x8 |] %8
V:3
 [G,B,]2 [F,A,]2 [G,D]2 [E,C]2 | [B,,B,]2 [C,E]2 [D,A,]4 | G,2 [D,C]2 [E,B,]2 B,2 | %3
 [G,B,]2 A,2 [D,A,]4 | [E,G,]2 [B,,G,]2 (G,A,) [B,,B,]2 | [A,,C]2 D2 [D,D]4 | %6
 [B,,D]2 [E,B,]2 [A,,C]2 [B,,D]2 | [C,E]2 (DC) [G,,B,]4 |] %8
V:4
 x8 | x8 | G,2 x2 (B,A,) x2 | x2 A,2 x4 | x4 B,,2 x2 | x2 (G,,B,,) x4 | x8 | x2 D,2 x4 |] %8

